Numix/16/status/indicator-keyboard-Ur-3.svg

<?xml version="1.0" encoding="UTF-8" standalone="no"?>
<svg
   xmlns:dc="http://purl.org/dc/elements/1.1/"
   xmlns:cc="http://creativecommons.org/ns#"
   xmlns:rdf="http://www.w3.org/1999/02/22-rdf-syntax-ns#"
   xmlns:svg="http://www.w3.org/2000/svg"
   xmlns="http://www.w3.org/2000/svg"
   xmlns:sodipodi="http://sodipodi.sourceforge.net/DTD/sodipodi-0.dtd"
   xmlns:inkscape="http://www.inkscape.org/namespaces/inkscape"
   viewBox="0 0 16 16"
   id="svg2"
   version="1.1"
   inkscape:version="0.91 r13725"
   sodipodi:docname="indicator-keyboard-Ur-3.svg">
  <metadata
     id="metadata14">
    <rdf:RDF>
      <cc:Work
         rdf:about="">
        <dc:format>image/svg+xml</dc:format>
        <dc:type
           rdf:resource="http://purl.org/dc/dcmitype/StillImage" />
      </cc:Work>
    </rdf:RDF>
  </metadata>
  <defs
     id="defs12" />
  <sodipodi:namedview
     pagecolor="#ffffff"
     bordercolor="#666666"
     borderopacity="1"
     objecttolerance="10"
     gridtolerance="10"
     guidetolerance="10"
     inkscape:pageopacity="0"
     inkscape:pageshadow="2"
     inkscape:window-width="459"
     inkscape:window-height="369"
     id="namedview10"
     showgrid="false"
     inkscape:zoom="14.75"
     inkscape:cx="8"
     inkscape:cy="8"
     inkscape:window-x="65"
     inkscape:window-y="24"
     inkscape:window-maximized="0"
     inkscape:current-layer="svg2" />
  <path
     style="fill:#ececec;fill-opacity:1"
     d="M 1.5996094 0 C 0.71320937 2.9605947e-16 0 0.71320937 0 1.5996094 L 0 14.400391 C 2.9605947e-16 15.286791 0.71320937 16 1.5996094 16 L 14.400391 16 C 15.286791 16 16 15.286791 16 14.400391 L 16 1.5996094 C 16 0.71320937 15.286791 0 14.400391 0 L 1.5996094 0 z M 2.2441406 4.859375 L 2.8554688 4.859375 L 2.8554688 8.7011719 C 2.8554688 9.0431719 2.8946563 9.34175 2.9726562 9.59375 C 3.0566562 9.83975 3.1704531 10.043078 3.3144531 10.205078 C 3.4584531 10.367078 3.6338906 10.486453 3.8378906 10.564453 C 4.0418906 10.642453 4.2694844 10.681641 4.5214844 10.681641 C 4.7734844 10.681641 5.0010781 10.642453 5.2050781 10.564453 C 5.4090781 10.486453 5.5825625 10.367078 5.7265625 10.205078 C 5.8705625 10.043078 5.9825469 9.83975 6.0605469 9.59375 C 6.1445469 9.34175 6.1855469 9.0431719 6.1855469 8.7011719 L 6.1855469 4.859375 L 6.7988281 4.859375 L 6.7988281 8.7832031 C 6.7988281 9.1252031 6.755875 9.4460938 6.671875 9.7460938 C 6.593875 10.040094 6.4651563 10.297531 6.2851562 10.519531 C 6.1051562 10.741531 5.8682187 10.916969 5.5742188 11.042969 C 5.2862187 11.168969 4.9354844 11.230469 4.5214844 11.230469 C 4.1074844 11.230469 3.7529844 11.168969 3.4589844 11.042969 C 3.1709844 10.916969 2.9378125 10.741531 2.7578125 10.519531 C 2.5778125 10.297531 2.4453281 10.040094 2.3613281 9.7460938 C 2.2833281 9.4460938 2.2441406 9.1252031 2.2441406 8.7832031 L 2.2441406 4.859375 z M 9.9375 6.3535156 C 10.1295 6.3535156 10.308562 6.3684375 10.476562 6.3984375 C 10.650562 6.4284375 10.769938 6.4582812 10.835938 6.4882812 L 10.71875 6.9921875 C 10.67075 6.9681875 10.571875 6.9439219 10.421875 6.9199219 C 10.277875 6.8899219 10.085703 6.875 9.8457031 6.875 C 9.5937031 6.875 9.390375 6.8936875 9.234375 6.9296875 C 9.084375 6.9656875 8.9855 6.9955312 8.9375 7.0195312 L 8.9375 11.095703 L 8.3515625 11.095703 L 8.3515625 6.6582031 C 8.5015625 6.5922031 8.7086562 6.5269375 8.9726562 6.4609375 C 9.2366562 6.3889375 9.5595 6.3535156 9.9375 6.3535156 z M 12.386719 8.7539062 C 12.589519 8.7539062 12.763903 8.7793781 12.908203 8.8300781 C 13.056403 8.8807781 13.177891 8.953275 13.275391 9.046875 C 13.372891 9.136575 13.445388 9.2463 13.492188 9.375 C 13.538987 9.4997999 13.5625 9.6350031 13.5625 9.7832031 C 13.5625 10.021103 13.497841 10.217041 13.369141 10.369141 C 13.244341 10.517341 13.083666 10.625106 12.884766 10.691406 C 12.993966 10.718706 13.097819 10.759859 13.199219 10.818359 C 13.304519 10.872959 13.398569 10.945456 13.480469 11.035156 C 13.562369 11.120956 13.628987 11.226762 13.679688 11.351562 C 13.730387 11.476362 13.755859 11.623316 13.755859 11.791016 C 13.755859 11.962616 13.724509 12.119372 13.662109 12.263672 C 13.603609 12.407972 13.513478 12.535331 13.392578 12.644531 C 13.275578 12.749831 13.126659 12.834084 12.943359 12.896484 C 12.760059 12.954984 12.544527 12.984375 12.298828 12.984375 C 12.170128 12.984375 12.050606 12.974578 11.941406 12.955078 C 11.836106 12.939478 11.744009 12.919884 11.662109 12.896484 C 11.580209 12.873084 11.509672 12.849572 11.451172 12.826172 C 11.396572 12.802772 11.355425 12.783178 11.328125 12.767578 L 11.427734 12.427734 C 11.451134 12.443334 11.490322 12.462928 11.544922 12.486328 C 11.599522 12.509728 11.664181 12.533241 11.738281 12.556641 C 11.816281 12.576141 11.900541 12.593775 11.994141 12.609375 C 12.091641 12.624975 12.197447 12.632813 12.310547 12.632812 C 12.681046 12.632812 12.945569 12.556397 13.105469 12.404297 C 13.265369 12.248297 13.345703 12.040597 13.345703 11.779297 C 13.345703 11.607697 13.312394 11.464663 13.246094 11.351562 C 13.183694 11.238462 13.097475 11.148331 12.984375 11.082031 C 12.875175 11.011831 12.745856 10.962847 12.597656 10.935547 C 12.453356 10.904347 12.298565 10.888672 12.134766 10.888672 L 12.076172 10.888672 L 12.076172 10.574219 L 12.210938 10.574219 C 12.316237 10.574219 12.424003 10.564422 12.533203 10.544922 C 12.646303 10.521522 12.748191 10.480375 12.837891 10.421875 C 12.931491 10.363375 13.005953 10.285 13.064453 10.1875 C 13.126853 10.09 13.158203 9.9646001 13.158203 9.8125 C 13.158203 9.6838 13.13665 9.5760281 13.09375 9.4863281 C 13.05085 9.3927281 12.994022 9.3182719 12.919922 9.2636719 C 12.849722 9.2090719 12.765469 9.1698844 12.667969 9.1464844 C 12.574369 9.1191844 12.474441 9.1054687 12.369141 9.1054688 C 12.158541 9.1054688 11.993953 9.1348594 11.876953 9.1933594 C 11.759953 9.2518594 11.665897 9.3067219 11.591797 9.3574219 L 11.427734 9.0585938 C 11.466734 9.0312937 11.515719 8.9999438 11.574219 8.9648438 C 11.636619 8.9297438 11.709116 8.8964344 11.791016 8.8652344 C 11.872916 8.8340344 11.961094 8.8085625 12.058594 8.7890625 C 12.159994 8.7656625 12.269719 8.7539062 12.386719 8.7539062 z "
     id="path4" />
</svg>

<svg xmlns="http://www.w3.org/2000/svg" viewBox="0 0 16 16">
 <path d="m 1.6 0 c -0.886 0 -1.6 0.713 -1.6 1.6 l 0 12.801 c 0 0.886 0.713 1.6 1.6 1.6 l 12.801 0 c 0.886 0 1.6 -0.713 1.6 -1.6 l 0 -12.801 c 0 -0.886 -0.713 -1.6 -1.6 -1.6 l -12.801 0 z m 0.645 4.859 l 0.611 0 l 0 3.842 c 0 0.342 0.039 0.641 0.117 0.893 c 0.084 0.246 0.198 0.449 0.342 0.611 c 0.144 0.162 0.319 0.281 0.523 0.359 c 0.204 0.078 0.432 0.117 0.684 0.117 c 0.252 0 0.48 -0.039 0.684 -0.117 c 0.204 -0.078 0.377 -0.197 0.521 -0.359 c 0.144 -0.162 0.256 -0.365 0.334 -0.611 c 0.084 -0.252 0.125 -0.551 0.125 -0.893 l 0 -3.842 l 0.613 0 l 0 3.924 c 0 0.342 -0.043 0.663 -0.127 0.963 c -0.078 0.294 -0.207 0.551 -0.387 0.773 c -0.18 0.222 -0.417 0.397 -0.711 0.523 c -0.288 0.126 -0.639 0.188 -1.053 0.188 c -0.414 0 -0.769 -0.061 -1.063 -0.188 c -0.288 -0.126 -0.521 -0.301 -0.701 -0.523 c -0.18 -0.222 -0.312 -0.479 -0.396 -0.773 c -0.078 -0.3 -0.117 -0.621 -0.117 -0.963 l 0 -3.924 z m 7.693 1.494 c 0.192 0 0.371 0.015 0.539 0.045 c 0.174 0.03 0.293 0.06 0.359 0.09 l -0.117 0.504 c -0.048 -0.024 -0.147 -0.048 -0.297 -0.072 c -0.144 -0.03 -0.336 -0.045 -0.576 -0.045 c -0.252 0 -0.455 0.019 -0.611 0.055 c -0.15 0.036 -0.249 0.066 -0.297 0.09 l 0 4.076 l -0.586 0 l 0 -4.437 c 0.15 -0.066 0.357 -0.131 0.621 -0.197 c 0.264 -0.072 0.587 -0.107 0.965 -0.107 z m 2.449 2.4 c 0.203 0 0.377 0.025 0.521 0.076 c 0.148 0.051 0.27 0.123 0.367 0.217 c 0.097 0.09 0.17 0.199 0.217 0.328 c 0.047 0.125 0.07 0.26 0.07 0.408 c 0 0.238 -0.065 0.434 -0.193 0.586 c -0.125 0.148 -0.285 0.256 -0.484 0.322 c 0.109 0.027 0.213 0.068 0.314 0.127 c 0.105 0.055 0.199 0.127 0.281 0.217 c 0.082 0.086 0.149 0.192 0.199 0.316 c 0.051 0.125 0.076 0.272 0.076 0.439 c 0 0.172 -0.031 0.328 -0.094 0.473 c -0.058 0.144 -0.149 0.272 -0.27 0.381 c -0.117 0.105 -0.266 0.19 -0.449 0.252 c -0.183 0.059 -0.399 0.088 -0.645 0.088 c -0.129 0 -0.248 -0.01 -0.357 -0.029 c -0.105 -0.016 -0.197 -0.035 -0.279 -0.059 c -0.082 -0.023 -0.152 -0.047 -0.211 -0.07 c -0.055 -0.023 -0.096 -0.043 -0.123 -0.059 l 0.1 -0.34 c 0.023 0.016 0.063 0.035 0.117 0.059 c 0.055 0.023 0.119 0.047 0.193 0.07 c 0.078 0.019 0.162 0.037 0.256 0.053 c 0.097 0.016 0.203 0.023 0.316 0.023 c 0.37 0 0.635 -0.076 0.795 -0.229 c 0.16 -0.156 0.24 -0.364 0.24 -0.625 c 0 -0.172 -0.033 -0.315 -0.1 -0.428 c -0.062 -0.113 -0.149 -0.203 -0.262 -0.27 c -0.109 -0.07 -0.239 -0.119 -0.387 -0.146 c -0.144 -0.031 -0.299 -0.047 -0.463 -0.047 l -0.059 0 l 0 -0.314 l 0.135 0 c 0.105 0 0.213 -0.01 0.322 -0.029 c 0.113 -0.023 0.215 -0.065 0.305 -0.123 c 0.094 -0.059 0.168 -0.137 0.227 -0.234 c 0.062 -0.098 0.094 -0.223 0.094 -0.375 c 0 -0.129 -0.022 -0.236 -0.064 -0.326 c -0.043 -0.094 -0.1 -0.168 -0.174 -0.223 c -0.07 -0.055 -0.154 -0.094 -0.252 -0.117 c -0.094 -0.027 -0.194 -0.041 -0.299 -0.041 c -0.211 0 -0.375 0.029 -0.492 0.088 c -0.117 0.059 -0.211 0.113 -0.285 0.164 l -0.164 -0.299 c 0.039 -0.027 0.088 -0.059 0.146 -0.094 c 0.062 -0.035 0.135 -0.068 0.217 -0.1 c 0.082 -0.031 0.17 -0.057 0.268 -0.076 c 0.101 -0.023 0.211 -0.035 0.328 -0.035 z" style="fill:#ececec;fill-opacity:1"/>
</svg>
